X: 1
T: Missa Ave regina celorum / Kyrie
N: Derived from Duf1002a-Missa_Ave_regina_celorum-Kyrie.krn
C: Guillaume Du Fay
%%abc-version 2.0
%%abcx-abcm2ps-target-version 5.9.1 (29 Sep 2008)
%%abc-creator hum2abc beta
%%abcx-conversion-date 2019/02/16 20:31:45
%%abc-edited-by Alejandro Planchart, Jesse Rodin
%%abc-edited-by Alejandro Planchart
%%abcx-initial-encoding-date 2014/07/17/
%%humdrum-veritas 3425889665
%%humdrum-veritas-data 3902751574
%%linebreak <none>
%%barnumbers 0
L: 1/4
M: 3/1
Q: 1/2=120
%%staves [1 2 3 4]
V: 1 clef=treble
V: 2 clef=treble-8
V: 3 clef=treble-8
V: 4 clef=bass
K: F
[V:1] c6=B2A4 | 
[V:2] f8c4 | 
[V:3] z12 | 
[V:4] F,8F,4 | 
[V:1] G4F2A3GE2 | 
[V:2] c4d3cA4- | 
[V:3] z12 | 
[V:4] _E,4D,6C,2 | 
[V:1] F4G6=E2 | 
[V:2] A4G8 | 
[V:3] z12 | 
[V:4] D,4_E,6C,2 | 
[V:1] E4z2A2G2E2 | 
[V:2] z2g4f2e4 | 
[V:3] c8c4 | 
[V:4] C,12 | 
[V:1]  [K:C] F2D2F2G2A4- | 
[V:2]  [K:C] d2f4e2d4 | 
[V:3]  [K:C] _B4A6G2 | 
[V:4]  [K:C] D,8D,2=E,2 | 
[V:1] A4D4G4- | 
[V:2] c4g3fd4 | 
[V:3] A4_B6G2- | 
[V:4] F,4G,8 | 
[V:1] G2c2B2A2BAGF | 
[V:2] e4c4[d4f4] | 
[V:3] G2A2G2c4=B2 | 
[V:4] C,4E,2F,2D,4 | 
[V:1] E8E2F2 | 
[V:2] [G8g8]A4 | 
[V:3] c8c4 | 
[V:4] C,12 | 
[V:1] G8z4 | 
[V:2] G4c8 | 
[V:3] d4e6d2 | 
[V:4] z4C,8 | 
[V:1] G6c6 | 
[V:2] z4g8- | 
[V:3] e12- | 
[V:4] C12 | 
[V:1] B4d2c2B3A | 
[V:2] g8g4 | 
[V:3] e4d4e4 | 
[V:4] G,8G,4 | 
[V:1] A4G4c4 | 
[V:2] c4B4c4 | 
[V:3] f4d2e4f2 | 
[V:4] F,4G,4A,2F,2- | 
[V:1] d4G2A4F2 | 
[V:2] f4e2c2d4 | 
[V:3] d4c4f4 | 
[V:4] F,2D,2E,2F,2D,4 | 
[V:1] G2c2d2B3cBA | 
[V:2] G4z2g4g2 | 
[V:3] e4d8 | 
[V:4] C,4G,8 | 
[V:1] c12 ||  
[V:2] e2f2g8 ||  
[V:3] c12 ||  
[V:4] C,12 ||  
[V:1]  [K:C] [K:clef=treble][M:3/1]c4B2A3GG2 | 
[V:2]  [K:C] [K:clef=treble-8][M:3/1]g4e2f2d4 | 
[V:3]  [K:C] [K:clef=treble-8][M:3/1]c8_B4 | 
[V:4]  [K:C] [K:clef=bass][M:3/1]z12 | 
[V:1] AF2EG2D2G3A- | 
[V:2] c4d3Gd2e2 | 
[V:3] A4G2_B4c2 | 
[V:4] z12 | 
[V:1] AE^F2G2z2B2G2 | 
[V:2] c3Bd4g4 | 
[V:3] A4G8 | 
[V:4] z12 | 
[V:1] c2BA3/G/FE2D3C | 
[V:2] e4c4G4 | 
[V:3] A6c2=B2A2 | 
[V:4] z12 | 
[V:1] C4z4z4 | 
[V:2] e2f2g4e4 | 
[V:3] c12 | 
[V:4] C,8A,4 | 
[V:1] c4d2e3dc2 | 
[V:2] c2e2f2g4a2 | 
[V:3] z4z4c4 | 
[V:4] A,3G,F,2E,4F,2 | 
[V:1] B2A2c3BG4 | 
[V:2] f4g4c4 | 
[V:3] d4e4e4 | 
[V:4] D,4C,4z2C2- | 
[V:1] z2c2d2B4c2- | 
[V:2] z12 | 
[V:3] e4d4e4 | 
[V:4] C2A,2B,2G,4A,2 | 
[V:1] cBA2G2c4B2 | 
[V:2] c3de2f2g4- | 
[V:3] f4e2c2d4 | 
[V:4] F,4C4G,4 | 
[V:1] c2z2G2A2G2E2- | 
[V:2] g2e4c2e4 | 
[V:3] c8c4 | 
[V:4] C,3D,E,2F,2E,2C,2 | 
[V:1] E2C3DE2F2G2 | 
[V:2] g2e2c2G2B3G | 
[V:3] G2A3Gc2d4 | 
[V:4] z4C,4B,,4 | 
[V:1] E12 ||  
[V:2] G12 ||  
[V:3] c12 ||  
[V:4] C,12 ||  
[V:1]  [K:C] [K:clef=treble][M:4/2]A8 | 
[V:2]  [K:C] [K:clef=treble-8][M:4/2]z8 | 
[V:3]  [K:C] [K:clef=treble-8][M:4/2]z8 | 
[V:4]  [K:C] [K:clef=bass][M:4/2]F,8 | 
[V:1] G4E4 | 
[V:2] z8 | 
[V:3] z8 | 
[V:4] G,4A,4- | 
[V:1] F8 | 
[V:2] z8 | 
[V:3] z8 | 
[V:4] A,4_B,4 | 
[V:1] G8 | 
[V:2] z8 | 
[V:3] z8 | 
[V:4] G,8 | 
[V:1] E4F4 | 
[V:2] c8 | 
[V:3] z8 | 
[V:4] A,8 | 
[V:1] G4A2c2- | 
[V:2] d4e4- | 
[V:3] z8 | 
[V:4] _B,4A,4 | 
[V:1] c2B2A4- | 
[V:2] e4f4 | 
[V:3] z8 | 
[V:4] C4D4 | 
[V:1] A4G2F2 | 
[V:2] d8 | 
[V:3] z8 | 
[V:4] _B,8 | 
[V:1] A8 | 
[V:2] e4f4 | 
[V:3] c8 | 
[V:4] A,8 | 
[V:1] z4B4 | 
[V:2] g8 | 
[V:3] d4e4- | 
[V:4] G,8 | 
[V:1] c2A2B2A2- | 
[V:2] c8 | 
[V:3] e4f4 | 
[V:4] A,4F,4- | 
[V:1] A2G2F3E | 
[V:2] A4B4 | 
[V:3] d8 | 
[V:4] F,2E,2D,4 | 
[V:1] G4z4 | 
[V:2] c8 | 
[V:3] e8 | 
[V:4] C,8- | 
[V:1] c8 | 
[V:2] e8 | 
[V:3] z4g4- | 
[V:4] C,8 | 
[V:1] B4A4- | 
[V:2] d8 | 
[V:3] g4f4 | 
[V:4] z8 | 
[V:1] A2G2G4- | 
[V:2] e4c4 | 
[V:3] e8 | 
[V:4] C8 | 
[V:1] G4B4 | 
[V:2] d4g4 | 
[V:3] d8 | 
[V:4] G,8 | 
[V:1] A4c4 | 
[V:2] ^f2^f4e2 | 
[V:3] c8 | 
[V:4] A,8 | 
[V:1] d4B4- | 
[V:2] g8 | 
[V:3] z4d4- | 
[V:4] G,8- | 
[V:1] B2G2G4- | 
[V:2] d8 | 
[V:3] d4_B4 | 
[V:4] G,8 | 
[V:1] G2A2G2c2 | 
[V:2] z4g4- | 
[V:3] c4_e4 | 
[V:4] C,8 | 
[V:1] d2B4A2 | 
[V:2] g2f2g4 | 
[V:3] d8 | 
[V:4] G,8 | 
[V:1] c8 | 
[V:2] e4g4 | 
[V:3] c8- | 
[V:4] C,8 | 
[V:1] z8 | 
[V:2] a2f3ed2 | 
[V:3] c8 | 
[V:4] F,8- | 
[V:1] A8 | 
[V:2] c8 | 
[V:3] z8 | 
[V:4] F,8 | 
[V:1] G4c4- | 
[V:2] e8 | 
[V:3] c8 | 
[V:4] z8 | 
[V:1] c4A4- | 
[V:2] z4f4- | 
[V:3] A6_B2 | 
[V:4] F,8 | 
[V:1] A4B4- | 
[V:2] f4g4- | 
[V:3] c4d4 | 
[V:4] A,4G,4- | 
[V:1] B2G2G4- | 
[V:2] g4d4- | 
[V:3] G4_B4 | 
[V:4] G,4G,4 | 
[V:1] G2^F2F2E2 | 
[V:2] d4d4 | 
[V:3] A8 | 
[V:4] D,8 | 
[V:1] G8 | 
[V:2] B6A2 | 
[V:3] G8 | 
[V:4] E,8 | 
[V:1] E8 | 
[V:2] c8 | 
[V:3] z4G4- | 
[V:4] C,8- | 
[V:1] C8 | 
[V:2] e4c4 | 
[V:3] G4A4- | 
[V:4] C,4F,4- | 
[V:1] z4F4 | 
[V:2] d8 | 
[V:3] A4=B4 | 
[V:4] F,2E,2D,4 | 
[V:1] E4G4- | 
[V:2] G8- | 
[V:3] c6=B2 | 
[V:4] C,8- | 
[V:1] G4C4- | 
[V:2] G8 | 
[V:3] c4G4 | 
[V:4] C,8- | 
[V:1] C4G2A2 | 
[V:2] z8 | 
[V:3] c8 | 
[V:4] C,8 | 
[V:1] G2B4c2 | 
[V:2] G8 | 
[V:3] d8 | 
[V:4] z8 | 
[V:1] A2B2c4- | 
[V:2] A8 | 
[V:3] c8- | 
[V:4] F,8 | 
[V:1] c4c4 | 
[V:2] F8 | 
[V:3] c8 | 
[V:4] A,8 | 
[V:1] B4A4- | 
[V:2] z4A4 | 
[V:3] d8 | 
[V:4] G,4F,4 | 
[V:1] A2G2G4 | 
[V:2] B2c4B2 | 
[V:3] e8 | 
[V:4] E,8 | 
[V:1] B2A3GF2 | 
[V:2] d2A2B2AB | 
[V:3] f8 | 
[V:4] D,8 | 
[V:1] E4G4 | 
[V:2] c8 | 
[V:3] g4e4- | 
[V:4] C,8- | 
[V:1] C4c4- | 
[V:2] g4e4 | 
[V:3] e4c4 | 
[V:4] C,8 | 
[V:1] c4B4 | 
[V:2] d4g4- | 
[V:3] d8 | 
[V:4] G,8 | 
[V:1] c8- | 
[V:2] g4g4 | 
[V:3] c8- | 
[V:4] C,8- | 
[V:1] c8- | 
[V:2] e4f4 | 
[V:3] c8- | 
[V:4] C,8- | 
[V:1] c8 ||  
[V:2] g8 ||  
[V:3] c8 ||  
[V:4] C,8 ||  
[V:1]  [K:C] [K:clef=treble][M:4/2]C6D2 | 
[V:2]  [K:C] [K:clef=treble][M:4/2]z8 | 
[V:3]  [K:C] [K:clef=treble-8][M:4/2]z8 | 
[V:4]  [K:C] [K:clef=bass][M:4/2]C6B,2 | 
[V:1] E4F4 | 
[V:2] z8 | 
[V:3] z8 | 
[V:4] C4D4 | 
[V:1] G8- | 
[V:2] C6D2 | 
[V:3] z8 | 
[V:4] E8 | 
[V:1] G4A4 | 
[V:2] E4F4 | 
[V:3] z8 | 
[V:4] C4A,4 | 
[V:1] G4E4- | 
[V:2] G8- | 
[V:3] z8 | 
[V:4] B,4C3B, | 
[V:1] E4F4 | 
[V:2] G4A4 | 
[V:3] z8 | 
[V:4] G,2F,E,D,4 | 
[V:1] G6C2- | 
[V:2] G4E4- | 
[V:3] z8 | 
[V:4] E,4C,4- | 
[V:1] C2E2D4 | 
[V:2] E4F4 | 
[V:3] z8 | 
[V:4] C,4z4 | 
[V:1] C4G2A2 | 
[V:2] G6C2- | 
[V:3] z8 | 
[V:4] C,3D,E,2F,2 | 
[V:1] G2c4B2 | 
[V:2] C2E2D4 | 
[V:3] z8 | 
[V:4] E,2C,2G,4 | 
[V:1] c2z2C3D | 
[V:2] C4G2A2 | 
[V:3] z8 | 
[V:4] C,8 | 
[V:1] E2F2D4 | 
[V:2] G2c4B2 | 
[V:3] z8 | 
[V:4] z4G,4 | 
[V:1] C2E4F2 | 
[V:2] c2z2C3D | 
[V:3] z8 | 
[V:4] A,3B,C2F,2 | 
[V:1] E2DCB,4 | 
[V:2] E2F2D4 | 
[V:3] z8 | 
[V:4] G,A,F,2G,4 | 
[V:1] C8 | 
[V:2] C2E4F2 | 
[V:3] z8 | 
[V:4] C,4A,2F,2 | 
[V:1] z8 | 
[V:2] E2DCB,4 | 
[V:3] z8 | 
[V:4] G,2E,2D,4 | 
[V:1] G8 | 
[V:2] C8 | 
[V:3] z8 | 
[V:4] C,4z4 | 
[V:1] A8 | 
[V:2] z8 | 
[V:3] z8 | 
[V:4] F,8 | 
[V:1] B8 | 
[V:2] G8 | 
[V:3] z8 | 
[V:4] E,4G,4 | 
[V:1] c8 | 
[V:2] A8 | 
[V:3] z8 | 
[V:4] F,4A,4 | 
[V:1] d4B4 | 
[V:2] B8 | 
[V:3] z8 | 
[V:4] G,8 | 
[V:1] A8 | 
[V:2] c8 | 
[V:3] z8 | 
[V:4] F,8 | 
[V:1] G8 | 
[V:2] d4B4 | 
[V:3] z8 | 
[V:4] z4G,4 | 
[V:1] z4F4 | 
[V:2] A8 | 
[V:3] z8 | 
[V:4] A,2F,4D,2 | 
[V:1] G4E4 | 
[V:2] G8 | 
[V:3] z8 | 
[V:4] E,6D,C, | 
[V:1] D8 | 
[V:2] z4F4 | 
[V:3] z8 | 
[V:4] B,,4D,4 | 
[V:1] C8 | 
[V:2] G4E4 | 
[V:3] z8 | 
[V:4] E,4C,4 | 
[V:1] z8 | 
[V:2] D8 | 
[V:3] z8 | 
[V:4] B,,8 | 
[V:1] [M:3/1](3:2:2c8B4 | 
[V:2] C8 | 
[V:3] z8 | 
[V:4] C,8 | 
[V:1] (3:2:2A4G8 | 
[V:2] [M:3/1](3:2:2C8B,4 | 
[V:3] z8 | 
[V:4] z8 | 
[V:1] A4B4G4 | 
[V:2] A,4G,8 | 
[V:3] z12 | 
[V:4] [M:3/1]C4D4B,4 | 
[V:1] c4d8 | 
[V:2] A,4B,4G,4 | 
[V:3] z12 | 
[V:4] A,4G,8 | 
[V:1] c4A4B4 | 
[V:2] C4D8 | 
[V:3] z12 | 
[V:4] A,4D,8 | 
[V:1] c8B4 | 
[V:2] C4A,4B,4 | 
[V:3] z12 | 
[V:4] A,6F,2G,4 | 
[V:1] G4A6G2 | 
[V:2] C8B,4 | 
[V:3] z12 | 
[V:4] E,4F,4G,4- | 
[V:1] G8^F4 | 
[V:2] G,4A,6G,2 | 
[V:3] z12 | 
[V:4] G,4D,8 | 
[V:1] G12 ||  
[V:2] G,12 ||  
[V:3] z12 ||  
[V:4] D12 ||  
[V:1]  [K:C] [K:clef=treble][M:4/2]C6D2 | 
[V:2]  [K:C] [K:clef=treble-8][M:4/2]z8 | 
[V:3]  [K:C] [K:clef=treble-8][M:4/2]z8 | 
[V:4]  [K:C] [K:clef=bass][M:4/2]C6B,2 | 
[V:1] E4F4 | 
[V:2] z8 | 
[V:3] z8 | 
[V:4] C4D4 | 
[V:1] G8- | 
[V:2] z8 | 
[V:3] z8 | 
[V:4] G,6E,2- | 
[V:1] G4A4 | 
[V:2] z8 | 
[V:3] z8 | 
[V:4] E,2G,2F,4 | 
[V:1] G4E4- | 
[V:2] z8 | 
[V:3] z8 | 
[V:4] G,4A,2C2- | 
[V:1] E4F4 | 
[V:2] z8 | 
[V:3] z8 | 
[V:4] C2B,2A,4 | 
[V:1] G6C2- | 
[V:2] z8 | 
[V:3] z8 | 
[V:4] G,4C4 | 
[V:1] C2E2D4 | 
[V:2] z8 | 
[V:3] z8 | 
[V:4] A,2C2B,3A, | 
[V:1] C4G2A2 | 
[V:2] z8 | 
[V:3] z8 | 
[V:4] C4z4 | 
[V:1] G2c4B2 | 
[V:2] z8 | 
[V:3] z8 | 
[V:4] E4D4 | 
[V:1] c2z2C3D | 
[V:2] z8 | 
[V:3] z8 | 
[V:4] E2C2z2C,2- | 
[V:1] E2F2D4 | 
[V:2] z8 | 
[V:3] z8 | 
[V:4] C,2D,2B,,4 | 
[V:1] C2E4F2 | 
[V:2] z8 | 
[V:3] z8 | 
[V:4] C,6B,,2 | 
[V:1] E2DCB,4 | 
[V:2] z8 | 
[V:3] z8 | 
[V:4] C,2E,2D,4 | 
[V:1] C8 | 
[V:2] z8 | 
[V:3] z8 | 
[V:4] C,8- | 
[V:1] z8 | 
[V:2] z8 | 
[V:3] z8 | 
[V:4] C,8 | 
[V:1] G8 | 
[V:2] z8 | 
[V:3] z8 | 
[V:4] z8 | 
[V:1] A8 | 
[V:2] z8 | 
[V:3] z8 | 
[V:4] C4A,2C2 | 
[V:1] B8 | 
[V:2] z8 | 
[V:3] z8 | 
[V:4] B,2D6 | 
[V:1] c8 | 
[V:2] z8 | 
[V:3] z8 | 
[V:4] E2C3B,A,2 | 
[V:1] d4B4 | 
[V:2] z8 | 
[V:3] z8 | 
[V:4] G,8 | 
[V:1] A8 | 
[V:2] z8 | 
[V:3] z8 | 
[V:4] z4F,4 | 
[V:1] G8 | 
[V:2] z8 | 
[V:3] z8 | 
[V:4] G,4E,4 | 
[V:1] z4F4 | 
[V:2] z8 | 
[V:3] z8 | 
[V:4] D,8 | 
[V:1] G4E4 | 
[V:2] z8 | 
[V:3] z8 | 
[V:4] C,8 | 
[V:1] D8 | 
[V:2] z8 | 
[V:3] z8 | 
[V:4] B,,8 | 
[V:1] C8 | 
[V:2] z8 | 
[V:3] z8 | 
[V:4] C,8- | 
[V:1] z8 | 
[V:2] z8 | 
[V:3] z8 | 
[V:4] C,8 | 
[V:1] (3:2:2c8B4 | 
[V:2] z8 | 
[V:3] z8 | 
[V:4] z8 | 
[V:1] [M:3/1]A4G8 | 
[V:2] [M:3/1]z12 | 
[V:3] z12 | 
[V:4] [M:3/1]C8B,4 | 
[V:1] A4B4G4 | 
[V:2] z12 | 
[V:3] z12 | 
[V:4] A,4G,8 | 
[V:1] c4d8 | 
[V:2] z12 | 
[V:3] z12 | 
[V:4] A,4B,4G,4 | 
[V:1] c4A4B4 | 
[V:2] z12 | 
[V:3] z12 | 
[V:4] C4D8 | 
[V:1] c8B4 | 
[V:2] z12 | 
[V:3] z12 | 
[V:4] C4A,4B,4 | 
[V:1] G4A6G2 | 
[V:2] z12 | 
[V:3] z12 | 
[V:4] C8B,4 | 
[V:1] G8^F4 | 
[V:2] z12 | 
[V:3] z12 | 
[V:4] G,4A,8 | 
[V:1] G12 ||  
[V:2] z12 ||  
[V:3] z12 ||  
[V:4] G,12 ||  
[V:1]  [K:C] [K:clef=treble][M:3/1]c6B2A4 | 
[V:2]  [K:C] [K:clef=treble-8][M:3/1]c12 | 
[V:3]  [K:C] [K:clef=treble-8][M:3/1]z12 | 
[V:4]  [K:C] [K:clef=bass][M:3/1]C,8F,4 | 
[V:1] G4A2A4GF | 
[V:2] e4f6e2 | 
[V:3] z12 | 
[V:4] E,4D,8 | 
[V:1] E6F2G4 | 
[V:2] g8e4 | 
[V:3] c12 | 
[V:4] C,8C4 | 
[V:1] c4B2A4G2 | 
[V:2] c4d8 | 
[V:3] e4f6e2 | 
[V:4] A,4D,8 | 
[V:1] B8z4 | 
[V:2] G12 | 
[V:3] g12 | 
[V:4] z4G,2E,3F,G,2 | 
[V:1] A6B2c4 | 
[V:2] d8e4 | 
[V:3] f8e4 | 
[V:4] D,8C,4 | 
[V:1] d4e6c2 | 
[V:2] f4e4g4- | 
[V:3] d4c8 | 
[V:4] B,,4C,8 | 
[V:1] c6B2B2A2 | 
[V:2] g12 | 
[V:3] e4d8 | 
[V:4] C,4G,8 | 
[V:1] c2z2G2A2G2c2- | 
[V:2] z2e4f2g4 | 
[V:3] c8c4 | 
[V:4] C,8C,4 | 
[V:1] c2A3GG2^F3E | 
[V:2] f4d8 | 
[V:3] A4_B2G2A4 | 
[V:4] F,4G,4D,4 | 
[V:1] G2z2D2G4A2 | 
[V:2] B6c2d4 | 
[V:3] G12 | 
[V:4] D8B,4 | 
[V:1] B2c2d4G4 | 
[V:2] g2f2d4e4 | 
[V:3] z4G8 | 
[V:4] G,4z4E,4 | 
[V:1] z12 | 
[V:2] c2d4G2A2B2 | 
[V:3] A4=B2c4=B2 | 
[V:4] F,2D,4E,2F,2G,2 | 
[V:1] z12 | 
[V:2] G2A3GG4F2 | 
[V:3] c2d3cc4=B2 | 
[V:4] C,2F,4E,2D,4 | 
[V:1] E4F2G4A2- | 
[V:2] G4A2G2c4 | 
[V:3] c8c4 | 
[V:4] C,4z2E,4F,2 | 
[V:1] A2B2c3BG4 | 
[V:2] z4z4c4 | 
[V:3] d4e6d2 | 
[V:4] D,4C,8 | 
[V:1] z2A2BAGFE2G2 | 
[V:2] B2A2d4G4 | 
[V:3] f6d2e4 | 
[V:4] D,4B,,4C,4 | 
[V:1] A2B2G4z2d2 | 
[V:2] c2B3cd2e2d2 | 
[V:3] c2d4G3A_B2 | 
[V:4] z2G,3A,B,2C2G,2 | 
[V:1] c2B2G2c4B2 | 
[V:2] e2d2z2g4g2 | 
[V:3] c2G2c2e2d4 | 
[V:4] z2G,2E,2C,2G,4 | 
[V:1] c12 ||  
[V:2] e4c4g4 ||  
[V:3] c12 ||  
[V:4] C,12 ||  
[V:1]  [K:C] [K:clef=treble][M:3/1]G4A2B4c2 | 
[V:2]  [K:C] [K:clef=treble-8][M:3/1]g8e4 | 
[V:3]  [K:C] [K:clef=treble-8][M:3/1]z12 | 
[V:4]  [K:C] [K:clef=bass][M:3/1]G,12 | 
[V:1] A4G3FE4 | 
[V:2] f4g8 | 
[V:3] z12 | 
[V:4] D4E4C4 | 
[V:1] D4z2A2G2B2- | 
[V:2] a4f4g4 | 
[V:3] z12 | 
[V:4] z2D2D4G,4 | 
[V:1] Bcd2e4c2dc | 
[V:2] e2f2g2c4f2 | 
[V:3] z12 | 
[V:4] z2D2C2A,4A,2 | 
[V:1] BAG4A2BAGF | 
[V:2] gfedc4d2ed | 
[V:3] z12 | 
[V:4] G,4E,2F,2D,2G,2 | 
[V:1] E2F2D4G4 | 
[V:2] cBA2B2G4c2- | 
[V:3] z12 | 
[V:4] A,2F,2G,4E,2C,2- | 
[V:1] E4F2E2D3C | 
[V:2] c2A4c2B3A | 
[V:3] z12 | 
[V:4] C,4D,2C,2G,4 | 
[V:1] C4z4G4 | 
[V:2] c8z4 | 
[V:3] z12 | 
[V:4] C,12 | 
[V:1] A2G4c2A2B2 | 
[V:2] c4B2c2d4 | 
[V:3] z12 | 
[V:4] z12 | 
[V:1] c3BAGG3FE2 | 
[V:2] e2c4B2c4 | 
[V:3] z12 | 
[V:4] C,2E,2F,2G,2C,4 | 
[V:1] DEDGFEG4A2 | 
[V:2] G2B2A2G2c3d | 
[V:3] z12 | 
[V:4] G,4D,2E,2C,4 | 
[V:1] G2d3cc4B2 | 
[V:2] e2f2g2c2d4 | 
[V:3] z12 | 
[V:4] C,2D,2B,,2C,2G,4 | 
[V:1] c2z2G3A_B2c2 | 
[V:2] c4z4G3A | 
[V:3] z12 | 
[V:4] C,8z4 | 
[V:1] d2G2F2_B2A2d2 | 
[V:2] _B2c2d2G2F2_B2 | 
[V:3] z12 | 
[V:4] G,2E,2D,2z2D,3E, | 
[V:1] c2_BA2GG4^F2 | 
[V:2] A2d3c_B2A4 | 
[V:3] z12 | 
[V:4] F,4G,4D,4 | 
[V:1] G12 ||  
[V:2] G12 ||  
[V:3] z12 ||  
[V:4] D12 ||  
[V:1]  [K:C] [K:clef=treble][M:3/1]c8B4 | 
[V:2]  [K:C] [K:clef=treble-8][M:3/1]z12 | 
[V:3]  [K:C] [K:clef=treble-8][M:3/1]c6d2e4 | 
[V:4]  [K:C] [K:clef=bass][M:3/1]C4A,2F,2G,4 | 
[V:1] A4d2c2A3G | 
[V:2] z12 | 
[V:3] f4d6c2 | 
[V:4] F,8F,4 | 
[V:1] G4E4C4 | 
[V:2] c8G4 | 
[V:3] e4z2g4f2 | 
[V:4] C,12 | 
[V:1] z2E2F2G2E4 | 
[V:2] A3GB4G4 | 
[V:3] e4d4c4- | 
[V:4] C,4B,,4C,4 | 
[V:1] A8F3E | 
[V:2] A8B4 | 
[V:3] c2d4c2d4 | 
[V:4] F,6E,2D,4 | 
[V:1] G12 | 
[V:2] c4z2c2B2G2 | 
[V:3] e4z4e4 | 
[V:4] C,8E,4 | 
[V:1] z4z4G4 | 
[V:2] A4B6A2 | 
[V:3] d4e6d2 | 
[V:4] F,4G,8 | 
[V:1] A4G2c4B2 | 
[V:2] c4e2f2g4 | 
[V:3] f4e2c2d4 | 
[V:4] F,4G,2A,2G,4 | 
[V:1] c8B4 | 
[V:2] z4g8 | 
[V:3] c8d4 | 
[V:4] C,8G,4 | 
[V:1] A4G8 | 
[V:2] e12 | 
[V:3] c4=B8 | 
[V:4] A,4E,8 | 
[V:1] F4E8 | 
[V:2] c8G4 | 
[V:3] A4G4c4 | 
[V:4] F,4C,8- | 
[V:1] G2E2G2FED4 | 
[V:2] G6A2B4 | 
[V:3] z4c4d4 | 
[V:4] C,8B,,4 | 
[V:1] C4z2A4B2 | 
[V:2] G4d8 | 
[V:3] e4f8 | 
[V:4] C,4D,8 | 
[V:1] c4B3cd2e2- | 
[V:2] z12 | 
[V:3] e4d6g2- | 
[V:4] C,4G,8 | 
[V:1] e2d2e2c4B2 | 
[V:2] e4c2g6 | 
[V:3] g2f2g2e2d4 | 
[V:4] C8G,4 | 
[V:1] c12 |]  
[V:2] e2f2g8 |]  
[V:3] c12 |]  
[V:4] C,12 |]  



